X: 23
T: The Lovisa
%R: march, reel
B: T. Davis "24 Country Dances for the Year 1748"
S: http://imslp.org/wiki/24_Country_Dances_for_the_Year_1748_(Davis,_T.) 2013-11-30
Z: 2013 John Chambers <jc:trillian.mit.edu>
N: The last line of the dance description has an undecipherable word.
M: 2/4
L: 1/16
K: A
% - - - - - - - - - - - - - - - - - - - - - - - - -
% Voice 1 has 8-bar staffs.
V: 1 staves=2
|:\
A4 e4 | {d}c2Bc A2B2 | {d}c2Bc A2e2 | d2c2 B4 |\
A4 e4 | {d}c2Bc A2B2 | {d}c2Bc A2a2 | g2f2 e4 :|
"last Strn once"\
e4 =g4 | f2ef d2c2 | (d2c2) (TB2^A2) | (d2c2) (TB2^A2) |\
d4 f4 | e2d2 (Tc2B2) | (Tc2B2) (A2^G2) | {d}(Tc2B2)(A2G2) |
e4 a4 | (Tg2f2)e2a2 | {a}g2fe a2e2 | d2c2 B4 |\
{d}Tc2BA B2e2 | {d}Tc2(BA) B4 |
{d}c2(BA) B2e2 | {d}c2(BA) B3e |\
f2ed g2fe | f2b2 {a}g4 | a2e2 {d}c2(BA) | TB4 A4 |]
% - - - - - - - - - - - - - - - - - - - - - - - - -
% Voice 2 preserves the original staff breaks.
V: 2 clef=bass middle=d
|:\
A2a2g2e2 | a4 z2"6"g2 | a4 z2"6"c'2 | "6"b2a2"6"g2e2 |\
A2a2"6"g2e2 | a4 z2"6"g2 | a4 "6"c'4 | "6;4"b2"#"B2 e4 :|\
c'4 "="e'4 | d'2c'2 b2^a2 | b4 z2f2 | b4 z2"#"f2 |\
b4 d'4 | c'2b2 a2g2 |
a4 z2e2 | a4 z2e2 |\
"6"c2A2c2d2 | e4 z2A2 | e4 z2"6"c'2 | b2a2"6"g2e2 |\
a4 z2g2 | a4 g2e2 | a4 z2"6"g2 | a4 e2c2 |\
d2"6"b2 e2"6"c'2 | d'2b2 e'2d'2 | "6"c'2g2a2"6"d2 | "4"e2"3"E2 A4 |]
%%begintext align
%% The first Man cast off & meet & turn his Partner (she footing it to the 2d Wo while he casts off) then the first
%% Wo. cast off & meet & turn her Partner (he footing it to the 2d Man while she casts off) | Take Hands &
%% draw with the 2d Cu. footing it ??ll a top   cast off one Cu. foot it & turn it out |
%%endtext

%%sep 1 1 500
%%sep 1 1 500

